X: 22546
T: Lady In The Lodge
R: jig
M: 6/8
K: Eminor
|:~E3 EFA|BGA FGD|~E3 EFA|BAG FDB,|
~E3 EFA|BAB dec|dBc ABG|1 A2G FED:|2 A2G FGA||
~B3 Bcd|ege fdB|~B3 cde|dBG AFA|
~B3 Bcd|ege fde|ceB cAB|A2G FGA|
~B3 Bcd|ege fdB|~B3 cde|dBG Aef|
gbb faa|ege dBG|cBA BAG|A2G FED||

